preferences/24/preferences-system-network-proxy.svg

<svg width="24" height="24" version="1.1" viewBox="0 0 24 24" xmlns="http://www.w3.org/2000/svg" xmlns:xlink="http://www.w3.org/1999/xlink">
<defs>
<linearGradient id="linearGradient3403" x1="6.9492" x2="11.215" y1="4.5549" y2="59.052" gradientUnits="userSpaceOnUse">
<stop style="stop-color:#32373c" offset="0"/>
<stop style="stop-color:#1a1a1a" offset=".36805"/>
<stop style="stop-color:#31363b" offset="1"/>
</linearGradient>
<linearGradient id="linearGradient20558" x1="25.802" x2="25.111" y1="20.374" y2="58.913" gradientUnits="userSpaceOnUse">
<stop style="stop-color:#3d3d3d" offset="0"/>
<stop offset=".61772"/>
<stop style="stop-color:#3d3d3d" offset="1"/>
</linearGradient>
<linearGradient id="linearGradient4557" x1="43.5" x2="44.142" y1="64.012" y2=".30621" gradientTransform="translate(.36068 -.13017)" gradientUnits="userSpaceOnUse">
<stop style="stop-color:#141618" offset="0"/>
<stop style="stop-color:#686868" offset=".51821"/>
<stop style="stop-color:#31363b" offset="1"/>
</linearGradient>
<linearGradient id="linearGradient919" x1="7.4006" x2="33.063" y1="41.743" y2="7.1074" gradientTransform="matrix(.44118 0 0 .44118 .42318 .35355)" gradientUnits="userSpaceOnUse">
<stop style="stop-opacity:.99608" offset="0"/>
<stop style="stop-color:#353a3f;stop-opacity:.99608" offset="1"/>
</linearGradient>
<linearGradient id="c" x1="6" x2="6" y1="30" y2="2" gradientUnits="userSpaceOnUse">
<stop stop-color="#197cf1" offset="0"/>
<stop stop-color="#20bcfa" offset="1"/>
</linearGradient>
<linearGradient id="d" x1="10" x2="30" y1="6" y2="26" gradientUnits="userSpaceOnUse">
<stop stop-color="#292c2f" offset="0"/>
<stop stop-opacity="0" offset="1"/>
</linearGradient>
<linearGradient id="e" x1="6" x2="6" y1="30" y2="2" gradientUnits="userSpaceOnUse">
<stop stop-color="#54d883" offset="0"/>
<stop stop-color="#abf9c7" offset="1"/>
</linearGradient>
<radialGradient id="f" cx="16" cy="16" r="9" gradientTransform="matrix(.88889 -2e-5 3e-5 1.4444 4.778 -7.11)" gradientUnits="userSpaceOnUse">
<stop stop-color="#fff" offset="0"/>
<stop stop-color="#eff0f1" stop-opacity="0" offset="1"/>
</radialGradient>
<linearGradient id="g" x1="27" x2="27" y1="29" y2="3" xlink:href="#a"/>
<linearGradient id="a" gradientUnits="userSpaceOnUse">
<stop stop-color="#6c5548" offset="0"/>
<stop stop-color="#997657" offset="1"/>
</linearGradient>
<linearGradient id="h" x1="27" x2="26" y1="29" y2="29" xlink:href="#a"/>
<linearGradient id="i" x1="11" x2="12" y1="29" y2="29" xlink:href="#b"/>
<linearGradient id="b" gradientUnits="userSpaceOnUse">
<stop stop-color="#433a35" offset="0"/>
<stop stop-color="#997657" offset="1"/>
</linearGradient>
<linearGradient id="j" x1="8" x2="9" y1="29" y2="29" gradientTransform="matrix(1 0 0 .04 3 2.84)" xlink:href="#b"/>
<linearGradient id="k" x1="5" x2="13" y1="16" y2="16" gradientUnits="userSpaceOnUse">
<stop stop-color="#997657" offset="0"/>
<stop stop-color="#d4ba94" offset="1"/>
</linearGradient>
<linearGradient id="l" x1="8" x2="6" y1="27" y2="27" xlink:href="#a"/>
<linearGradient id="m" x1="12" x2="10" y1="26" y2="26" xlink:href="#a"/>
<linearGradient id="n" x1="8" x2="6" y1="7" y2="7" xlink:href="#a"/>
<linearGradient id="o" x1="12" x2="10" y1="8" y2="8" xlink:href="#a"/>
<linearGradient id="p" x1="8" x2="6" y1="21" y2="21" xlink:href="#a"/>
<linearGradient id="q" x1="12" x2="10" y1="21" y2="21" xlink:href="#a"/>
<linearGradient id="r" x1="8" x2="6" y1="13" y2="13" xlink:href="#a"/>
<linearGradient id="s" x1="12" x2="10" y1="13" y2="13" xlink:href="#a"/>
<linearGradient id="t" x1="4" x2="5" y1="16" y2="16" xlink:href="#a"/>
<radialGradient id="u" cx="7" cy="16" r="1" gradientUnits="userSpaceOnUse">
<stop stop-color="#eff0f1" offset="0"/>
<stop stop-color="#bdc3c7" offset="1"/>
</radialGradient>
</defs>
<g transform="translate(1,1)">
<rect x="1.8186" y="1.6852" width="18.567" height="18.844" ry="0" style="fill-rule:evenodd;fill:url(#linearGradient919)"/>
<g transform="matrix(.66971 0 0 .6821 2.3031 -.34868)">
<path d="m14.809 3a13.943 13.943 0 0 0-3.809 2.266v21.468a13.943 13.943 0 0 0 3.809 2.266h10.381c0.628-0.25 1.23-0.543 1.809-0.877v-24.246a13.895 13.895 0 0 0-1.808-0.877z" fill="url(#c)" style="fill:url(#c)"/>
<path d="m14.807 3a13.965 13.965 0 0 0-3.807 2.26v12.314l6.188 3.559 1.314 7.867h6.686a13.97 13.97 0 0 0 1.812-0.875v-24.248a13.895 13.895 0 0 0-1.809-0.877z" fill="url(#d)" fill-rule="evenodd" opacity=".2" style="fill:url(#d)"/>
<path d="m14.854 3a14 14 0 0 0-3.854 2.291v5.709l1 1v-2l2-1v-1l2-1 2-2v1l1-1-1-1h2v1l2-1-1-1zm-0.854 13-2 1h-1v1l1 1-1 1v2l1 2 2 2v2.629a14 14 0 0 0 0.885 0.371h6.115v-1l2-1 1-1v-2l1-1v-1l-1-1-3-1-2-2h-1l-1-1z" fill="url(#e)" style="fill:url(#e)"/>
<path d="m11 3h16v26h-16z" fill="url(#f)" opacity=".4" style="fill:url(#f)"/>
<path d="m11 3h16v1h-16zm0 25h16v1h-16z" fill="url(#g)" style="fill:url(#g)"/>
<path d="m26 3h1v26h-1z" fill="url(#h)" style="fill:url(#h)"/>
<path d="m11 4h1v25h-1z" fill="url(#i)" style="fill:url(#i)"/>
<path d="m11 3h1v1h-1z" fill="url(#j)" style="fill:url(#j)"/>
<path d="m13 4-8-2v28l8-2z" fill="url(#k)" style="fill:url(#k)"/>
<path d="m6 28 2-0.5v-4.625l-2 0.125z" fill="url(#l)" style="fill:url(#l)"/>
<path d="m10 27 2-0.5v-3.875l-2 0.125z" fill="url(#m)" style="fill:url(#m)"/>
<path d="m6 4 2 0.5v4.625l-2-0.125z" fill="url(#n)" style="fill:url(#n)"/>
<path d="m10 5 2 0.5v3.875l-2-0.125z" fill="url(#o)" style="fill:url(#o)"/>
<path d="m8 18h-2v4l2-0.125z" fill="url(#p)" style="fill:url(#p)"/>
<path d="m12 18h-2v3.75l2-0.125z" fill="url(#q)" style="fill:url(#q)"/>
<path d="m8 14h-2v-4l2 0.125z" fill="url(#r)" style="fill:url(#r)"/>
<path d="m12 14h-2v-3.75l2 0.125z" fill="url(#s)" style="fill:url(#s)"/>
<path d="m4 2.5 1-0.5v28l-1-0.5z" fill="url(#t)" style="fill:url(#t)"/>
<circle cx="7" cy="16" r="1" fill="url(#u)" style="fill:url(#u)"/>
</g>
<path transform="matrix(.33171 0 0 .33171 .46717 .36453)" d="m4.7043 3.9815-0.012938 56.82h53.904l1.0222-2.8664s-23.875 0.76639-32.844-4.1404c-10.516-5.7529-15.372-49.697-15.372-49.697z" style="fill:url(#linearGradient3403);mix-blend-mode:normal;stroke-linejoin:round;stroke-width:1.1624;stroke:url(#linearGradient20558)"/>
<rect transform="matrix(.31074 0 0 .31011 1.0245 1.0348)" x="1.0324" y=".59551" width="62.567" height="62.867" rx="5.803" ry="6.2447" style="fill:none;stroke-linejoin:round;stroke-miterlimit:7.8;stroke-opacity:.99515;stroke-width:3.7137;stroke:url(#linearGradient4557)"/>
</g>
</svg>

<!-- Created with Inkscape (http://www.inkscape.org/) -->
<svg xmlns:inkscape="http://www.inkscape.org/namespaces/inkscape" xmlns:sodipodi="http://sodipodi.sourceforge.net/DTD/sodipodi-0.dtd" xmlns:xlink="http://www.w3.org/1999/xlink" xmlns="http://www.w3.org/2000/svg" xmlns:svg="http://www.w3.org/2000/svg" width="24" height="24" version="1.1" viewBox="0 0 24 24" id="svg22" sodipodi:docname="preferences-system-network-proxy.svg" inkscape:version="1.1.2 (0a00cf5339, 2022-02-04)">
  <sodipodi:namedview id="namedview24" pagecolor="#ffffff" bordercolor="#666666" borderopacity="1.0" inkscape:showpageshadow="2" inkscape:pageopacity="0.0" inkscape:pagecheckerboard="0" inkscape:deskcolor="#d1d1d1" showgrid="false" inkscape:zoom="25.62" inkscape:cx="-2.0296643" inkscape:cy="16.783763" inkscape:window-width="3440" inkscape:window-height="1356" inkscape:window-x="0" inkscape:window-y="0" inkscape:window-maximized="1" inkscape:current-layer="svg22" inkscape:pageshadow="2"/>
  <defs id="defs12">
    <linearGradient inkscape:collect="always" id="linearGradient917">
      <stop style="stop-color:#000000;stop-opacity:0.99607843" offset="0" id="stop913"/>
      <stop style="stop-color:#353a3f;stop-opacity:0.99607843" offset="1" id="stop915"/>
    </linearGradient>
    <linearGradient id="linearGradient1005-3-3" x1="5.2535" x2="9.3823996" y1="15.383" y2="2.9421" gradientTransform="matrix(0.99999,0,0,0.99999,1.632,-0.61743)" gradientUnits="userSpaceOnUse">
      <stop stop-color="#fa8200" offset="0" id="stop2"/>
      <stop stop-color="#ff9600" offset=".36953" id="stop4"/>
      <stop stop-color="#ffb400" offset="1" id="stop6"/>
    </linearGradient>
    <filter id="filter4014" x="-0.062499933" y="-0.057692993" width="1.1249999" height="1.115386" color-interpolation-filters="sRGB">
      <feGaussianBlur stdDeviation="1.093751" id="feGaussianBlur9"/>
    </filter>
    <linearGradient inkscape:collect="always" xlink:href="#linearGradient3487" id="linearGradient3403" gradientUnits="userSpaceOnUse" x1="6.9491749" y1="4.5549412" x2="11.215498" y2="59.052471"/>
    <linearGradient id="linearGradient3487">
      <stop style="stop-color:#32373c;stop-opacity:1" offset="0" id="stop3481"/>
      <stop id="stop3483" offset="0.36804965" style="stop-color:#1a1a1a;stop-opacity:1"/>
      <stop style="stop-color:#31363b;stop-opacity:1" offset="1" id="stop3485"/>
    </linearGradient>
    <linearGradient inkscape:collect="always" xlink:href="#linearGradient20604" id="linearGradient20558" gradientUnits="userSpaceOnUse" x1="25.802212" y1="20.373846" x2="25.111048" y2="58.912758"/>
    <linearGradient id="linearGradient20604">
      <stop id="stop20598" offset="0" style="stop-color:#3d3d3d;stop-opacity:1"/>
      <stop style="stop-color:#000000;stop-opacity:1" offset="0.61772454" id="stop20600"/>
      <stop id="stop20602" offset="1" style="stop-color:#3d3d3d;stop-opacity:1"/>
    </linearGradient>
    <filter inkscape:collect="always" style="color-interpolation-filters:sRGB" id="filter20720" x="-0.017024755" y="-0.016457183" width="1.0340491" height="1.0329144">
      <feGaussianBlur inkscape:collect="always" stdDeviation="0.14745661" id="feGaussianBlur20722"/>
    </filter>
    <linearGradient gradientTransform="translate(0.36067797,-0.13016949)" xlink:href="#linearGradient4555" id="linearGradient4557" x1="43.499737" y1="64.011795" x2="44.141731" y2="0.30621234" gradientUnits="userSpaceOnUse"/>
    <linearGradient id="linearGradient4555">
      <stop style="stop-color:#141618;stop-opacity:1" offset="0" id="stop4551"/>
      <stop id="stop4559" offset="0.51820582" style="stop-color:#686868;stop-opacity:1"/>
      <stop style="stop-color:#31363b;stop-opacity:1" offset="1" id="stop4553"/>
    </linearGradient>
    <filter style="color-interpolation-filters:sRGB" id="filter4601" x="-0.030244762" width="1.0604895" y="-0.030100647" height="1.0602013">
      <feGaussianBlur stdDeviation="0.014790289" id="feGaussianBlur4603"/>
    </filter>
    <linearGradient inkscape:collect="always" xlink:href="#linearGradient917" id="linearGradient919" x1="7.400631" y1="41.743092" x2="33.063145" y2="7.1074457" gradientUnits="userSpaceOnUse" gradientTransform="matrix(0.44117538,0,0,0.44117538,0.42318026,0.35354593)"/>
    <linearGradient id="c" gradientUnits="userSpaceOnUse" x1="6" x2="6" y1="30" y2="2">
      <stop offset="0" stop-color="#197cf1" id="stop12"/>
      <stop offset="1" stop-color="#20bcfa" id="stop14"/>
    </linearGradient>
    <linearGradient id="d" gradientUnits="userSpaceOnUse" x1="10" x2="30" y1="6" y2="26">
      <stop offset="0" stop-color="#292c2f" id="stop7"/>
      <stop offset="1" stop-opacity="0" id="stop9"/>
    </linearGradient>
    <linearGradient id="e" gradientUnits="userSpaceOnUse" x1="6" x2="6" y1="30" y2="2">
      <stop offset="0" stop-color="#54d883" id="stop2-4"/>
      <stop offset="1" stop-color="#abf9c7" id="stop4-8"/>
    </linearGradient>
    <radialGradient id="f" cx="16" cy="16" gradientTransform="matrix(0.88889,-2e-5,3e-5,1.44444,4.778,-7.11)" gradientUnits="userSpaceOnUse" r="9">
      <stop offset="0" stop-color="#fff" id="stop27"/>
      <stop offset="1" stop-color="#eff0f1" stop-opacity="0" id="stop29"/>
    </radialGradient>
    <linearGradient id="g" x1="27" x2="27" xlink:href="#a" y1="29" y2="3"/>
    <linearGradient id="a" gradientUnits="userSpaceOnUse">
      <stop offset="0" stop-color="#6c5548" id="stop22"/>
      <stop offset="1" stop-color="#997657" id="stop24"/>
    </linearGradient>
    <linearGradient id="h" x1="27" x2="26" xlink:href="#a" y1="29" y2="29"/>
    <linearGradient id="i" x1="11" x2="12" xlink:href="#b" y1="29" y2="29"/>
    <linearGradient id="b" gradientUnits="userSpaceOnUse">
      <stop offset="0" stop-color="#433a35" id="stop17"/>
      <stop offset="1" stop-color="#997657" id="stop19"/>
    </linearGradient>
    <linearGradient id="j" gradientTransform="matrix(1,0,0,0.04,3,2.84)" x1="8" x2="9" xlink:href="#b" y1="29" y2="29"/>
    <linearGradient id="k" gradientUnits="userSpaceOnUse" x1="5" x2="13" y1="16" y2="16">
      <stop offset="0" stop-color="#997657" id="stop41"/>
      <stop offset="1" stop-color="#d4ba94" id="stop43"/>
    </linearGradient>
    <linearGradient id="l" x1="8" x2="6" xlink:href="#a" y1="27" y2="27"/>
    <linearGradient id="m" x1="12" x2="10" xlink:href="#a" y1="26" y2="26"/>
    <linearGradient id="n" x1="8" x2="6" xlink:href="#a" y1="7" y2="7"/>
    <linearGradient id="o" x1="12" x2="10" xlink:href="#a" y1="8" y2="8"/>
    <linearGradient id="p" x1="8" x2="6" xlink:href="#a" y1="21" y2="21"/>
    <linearGradient id="q" x1="12" x2="10" xlink:href="#a" y1="21" y2="21"/>
    <linearGradient id="r" x1="8" x2="6" xlink:href="#a" y1="13" y2="13"/>
    <linearGradient id="s" x1="12" x2="10" xlink:href="#a" y1="13" y2="13"/>
    <linearGradient id="t" x1="4" x2="5" xlink:href="#a" y1="16" y2="16"/>
    <radialGradient id="u" cx="7" cy="16" gradientUnits="userSpaceOnUse" r="1">
      <stop offset="0" stop-color="#eff0f1" id="stop32"/>
      <stop offset="1" stop-color="#bdc3c7" id="stop34"/>
    </radialGradient>
  </defs>
  <g transform="translate(1,1)">
    <rect style="display:inline;fill:url(#linearGradient919);fill-opacity:1;fill-rule:evenodd;stroke:none;stroke-width:0.409332;stroke-linejoin:round;stroke-miterlimit:7.8" id="rect1192" width="18.56669" height="18.843531" x="1.8185785" y="1.6852293" ry="0" inkscape:label="arriere"/>
    <g id="g933" transform="matrix(0.66970811,0,0,0.68210287,2.3031496,-0.34868444)">
      <path d="M 14.809,3 A 13.943,13.943 0 0 0 11,5.266 V 26.734 A 13.943,13.943 0 0 0 14.809,29 H 25.19 c 0.628,-0.25 1.23,-0.543 1.809,-0.877 V 3.877 A 13.895,13.895 0 0 0 25.191,3 Z" fill="url(#c)" id="path55" style="fill:url(#c)"/>
      <path d="M 14.807,3 A 13.965,13.965 0 0 0 11,5.26 v 12.314 l 6.188,3.559 1.314,7.867 h 6.686 A 13.97,13.97 0 0 0 27,28.125 V 3.877 A 13.895,13.895 0 0 0 25.191,3 Z" fill="url(#d)" fill-rule="evenodd" opacity="0.2" id="path57" style="fill:url(#d)"/>
      <path d="M 14.854,3 A 14,14 0 0 0 11,5.291 V 11 l 1,1 V 10 L 14,9 V 8 L 16,7 18,5 V 6 L 19,5 18,4 h 2 V 5 L 22,4 21,3 Z M 14,16 12,17 h -1 v 1 l 1,1 -1,1 v 2 l 1,2 2,2 v 2.629 A 14,14 0 0 0 14.885,29 H 21 v -1 l 2,-1 1,-1 v -2 l 1,-1 v -1 l -1,-1 -3,-1 -1,-1 -1,-1 h -1 l -1,-1 z" fill="url(#e)" id="path59" style="fill:url(#e)"/>
      <path d="M 11,3 H 27 V 29 H 11 Z" fill="url(#f)" opacity="0.4" id="path61" style="fill:url(#f)"/>
      <path d="M 11,3 H 27 V 4 H 11 Z m 0,25 h 16 v 1 H 11 Z" fill="url(#g)" id="path63" style="fill:url(#g)"/>
      <path d="m 26,3 h 1 v 26 h -1 z" fill="url(#h)" id="path65" style="fill:url(#h)"/>
      <path d="m 11,4 h 1 v 25 h -1 z" fill="url(#i)" id="path67" style="fill:url(#i)"/>
      <path d="m 11,3 h 1 v 1 h -1 z" fill="url(#j)" id="path69" style="fill:url(#j)"/>
      <path d="M 13,4 5,2 v 28 l 8,-2 z" fill="url(#k)" id="path71" style="fill:url(#k)"/>
      <path d="M 6,28 8,27.5 V 22.875 L 6,23 Z" fill="url(#l)" id="path73" style="fill:url(#l)"/>
      <path d="m 10,27 2,-0.5 v -3.875 l -2,0.125 z" fill="url(#m)" id="path75" style="fill:url(#m)"/>
      <path d="M 6,4 8,4.5 V 9.125 L 6,9 Z" fill="url(#n)" id="path77" style="fill:url(#n)"/>
      <path d="m 10,5 2,0.5 V 9.375 L 10,9.25 Z" fill="url(#o)" id="path79" style="fill:url(#o)"/>
      <path d="M 8,18 H 6 v 4 l 2,-0.125 z" fill="url(#p)" id="path81" style="fill:url(#p)"/>
      <path d="m 12,18 h -2 v 3.75 l 2,-0.125 z" fill="url(#q)" id="path83" style="fill:url(#q)"/>
      <path d="M 8,14 H 6 v -4 l 2,0.125 z" fill="url(#r)" id="path85" style="fill:url(#r)"/>
      <path d="m 12,14 h -2 v -3.75 l 2,0.125 z" fill="url(#s)" id="path87" style="fill:url(#s)"/>
      <path d="M 4,2.5 5,2 V 30 L 4,29.5 Z" fill="url(#t)" id="path89" style="fill:url(#t)"/>
      <circle cx="7" cy="16" fill="url(#u)" r="1" id="circle91" style="fill:url(#u)"/>
    </g>
    <path style="display:inline;mix-blend-mode:normal;fill:url(#linearGradient3403);fill-opacity:1;stroke:url(#linearGradient20558);stroke-width:1.16242;stroke-linecap:butt;stroke-linejoin:round;stroke-miterlimit:4;stroke-dasharray:none;stroke-opacity:1;filter:url(#filter20720)" d="M 4.7043071,3.9814882 4.6913695,60.80196 H 58.59546 l 1.022155,-2.866369 c 0,0 -23.87537,0.766388 -32.844441,-4.140386 C 16.257548,48.042344 11.401114,4.0978197 11.401114,4.0978197 Z" id="path1686" sodipodi:nodetypes="ccccscc" transform="matrix(0.33171082,0,0,0.33171082,0.46716751,0.36452518)" inkscape:label="folder"/>
    <rect style="display:inline;fill:none;fill-opacity:1;stroke:url(#linearGradient4557);stroke-width:3.71366;stroke-linejoin:round;stroke-miterlimit:7.8;stroke-dasharray:none;stroke-opacity:0.995146;filter:url(#filter4601)" id="rect4539" width="62.567089" height="62.866646" x="1.0323594" y="0.59551275" ry="6.2447233" rx="5.8029528" transform="matrix(0.31074097,0,0,0.31010761,1.0244956,1.0348118)" inkscape:label="contour"/>
  </g>
</svg>
